src/activities/babyshapes/resource/shapeBackground/T_milk_cup.svg

<?xml version="1.0" encoding="UTF-8" standalone="no"?>
<svg
   xmlns:dc="http://purl.org/dc/elements/1.1/"
   xmlns:cc="http://creativecommons.org/ns#"
   xmlns:rdf="http://www.w3.org/1999/02/22-rdf-syntax-ns#"
   xmlns:svg="http://www.w3.org/2000/svg"
   xmlns="http://www.w3.org/2000/svg"
   id="svg2"
   version="1.1"
   width="100"
   height="100">
  <metadata
     id="metadata8">
    <rdf:RDF>
      <cc:Work
         rdf:about="">
        <dc:format>image/svg+xml</dc:format>
        <dc:type
           rdf:resource="http://purl.org/dc/dcmitype/StillImage" />
        <dc:title></dc:title>
        <dc:date>2021</dc:date>
        <dc:creator>
          <cc:Agent>
            <dc:title>Timothée Giet</dc:title>
          </cc:Agent>
        </dc:creator>
        <cc:license
           rdf:resource="http://creativecommons.org/licenses/by-sa/4.0/" />
      </cc:Work>
      <cc:License
         rdf:about="http://creativecommons.org/licenses/by-sa/4.0/">
        <cc:permits
           rdf:resource="http://creativecommons.org/ns#Reproduction" />
        <cc:permits
           rdf:resource="http://creativecommons.org/ns#Distribution" />
        <cc:requires
           rdf:resource="http://creativecommons.org/ns#Notice" />
        <cc:requires
           rdf:resource="http://creativecommons.org/ns#Attribution" />
        <cc:permits
           rdf:resource="http://creativecommons.org/ns#DerivativeWorks" />
        <cc:requires
           rdf:resource="http://creativecommons.org/ns#ShareAlike" />
      </cc:License>
    </rdf:RDF>
  </metadata>
  <defs
     id="defs6" />
  <path
     id="path4233-6-3-3-6-5"
     d="M 69.921875,7.1992184 C 68.370418,7.147437 66.721828,7.4980104 66.066406,8.0878902 65.368377,8.7161161 63.654941,14.568058 61.789062,21.447266 58.012774,21.157041 54.077482,20.986328 50,20.986328 c -26.233063,0 -47.4993454,6.38688 -47.5,14.265625 0,18.490749 10.5728,34.502043 25.996094,42.349609 A 29.53586,9.0290685 0 0 0 20.464844,83.775391 29.53586,9.0290685 0 0 0 50,92.804688 29.53586,9.0290685 0 0 0 79.535156,83.775391 29.53586,9.0290685 0 0 0 71.509766,77.597656 C 86.929669,69.748944 97.5,53.740208 97.5,35.251953 97.499505,29.299028 85.350102,24.202602 68.099609,22.064453 70.44577,16.22527 72.605191,11.093784 73.107422,9.7363277 73.750714,7.9976064 71.916605,7.2657942 69.921875,7.1992184 Z"
     style="color:#000000;display:inline;overflow:visible;visibility:visible;opacity:1;fill:#3651e7;fill-opacity:1;fill-rule:nonzero;stroke:#ffffff;stroke-width:4;stroke-linecap:round;stroke-linejoin:round;stroke-miterlimit:4;stroke-dasharray:none;stroke-dashoffset:0;stroke-opacity:1;marker:none;enable-background:accumulate" />
  <path
     id="path4233-6-3-3-6"
     d="M 69.921875 7.1992188 C 68.370418 7.1474374 66.721828 7.4980108 66.066406 8.0878906 C 65.368377 8.7161165 63.654941 14.568058 61.789062 21.447266 C 58.012774 21.157041 54.077482 20.986328 50 20.986328 C 23.766937 20.986328 2.5006546 27.373208 2.5 35.251953 C 2.5 53.742702 13.0728 69.753996 28.496094 77.601562 A 29.53586 9.0290685 0 0 0 20.464844 83.775391 A 29.53586 9.0290685 0 0 0 50 92.804688 A 29.53586 9.0290685 0 0 0 79.535156 83.775391 A 29.53586 9.0290685 0 0 0 71.509766 77.597656 C 86.929669 69.748944 97.5 53.740208 97.5 35.251953 C 97.499505 29.299028 85.350102 24.202602 68.099609 22.064453 C 70.44577 16.22527 72.605191 11.093784 73.107422 9.7363281 C 73.750714 7.9976068 71.916605 7.2657946 69.921875 7.1992188 z "
     style="color:#000000;display:inline;overflow:visible;visibility:visible;opacity:1;fill:#3651e7;fill-opacity:1;fill-rule:nonzero;stroke:none;stroke-width:0.16947562;stroke-linecap:round;stroke-linejoin:round;stroke-miterlimit:4;stroke-dasharray:none;stroke-dashoffset:0;stroke-opacity:1;marker:none;enable-background:accumulate" />
</svg>

<svg xmlns:dc="http://purl.org/dc/elements/1.1/" xmlns:cc="http://creativecommons.org/ns#" xmlns:rdf="http://www.w3.org/1999/02/22-rdf-syntax-ns#" xmlns="http://www.w3.org/2000/svg" width="100" height="100"><metadata><rdf:RDF><cc:Work><dc:format>image/svg+xml</dc:format><dc:type rdf:resource="http://purl.org/dc/dcmitype/StillImage"/><dc:title/><dc:date>2021</dc:date><dc:creator><cc:Agent><dc:title>Timothée Giet</dc:title></cc:Agent></dc:creator><cc:license rdf:resource="http://creativecommons.org/licenses/by-sa/4.0/"/></cc:Work><cc:License rdf:about="http://creativecommons.org/licenses/by-sa/4.0/"><cc:permits rdf:resource="http://creativecommons.org/ns#Reproduction"/><cc:permits rdf:resource="http://creativecommons.org/ns#Distribution"/><cc:requires rdf:resource="http://creativecommons.org/ns#Notice"/><cc:requires rdf:resource="http://creativecommons.org/ns#Attribution"/><cc:permits rdf:resource="http://creativecommons.org/ns#DerivativeWorks"/><cc:requires rdf:resource="http://creativecommons.org/ns#ShareAlike"/></cc:License></rdf:RDF></metadata><path d="M69.922 7.2c-1.552-.053-3.2.298-3.856.888-.698.628-2.411 6.48-4.277 13.36-3.776-.291-7.712-.462-11.789-.462-26.233 0-47.5 6.387-47.5 14.266 0 18.49 10.573 34.502 25.996 42.35a29.536 9.03 0 0 0-8.031 6.173A29.536 9.03 0 0 0 50 92.805a29.536 9.03 0 0 0 29.535-9.03 29.536 9.03 0 0 0-8.025-6.177C86.93 69.748 97.5 53.74 97.5 35.252c0-5.953-12.15-11.05-29.4-13.188 2.346-5.839 4.505-10.97 5.007-12.328.644-1.738-1.19-2.47-3.185-2.537z" style="color:#000;display:inline;overflow:visible;visibility:visible;opacity:1;fill:#3651e7;fill-opacity:1;fill-rule:nonzero;stroke:#fff;stroke-width:4;stroke-linecap:round;stroke-linejoin:round;stroke-miterlimit:4;stroke-dasharray:none;stroke-dashoffset:0;stroke-opacity:1;marker:none;enable-background:accumulate"/><path d="M69.922 7.2c-1.552-.053-3.2.298-3.856.888-.698.628-2.411 6.48-4.277 13.36-3.776-.291-7.712-.462-11.789-.462-26.233 0-47.5 6.387-47.5 14.266 0 18.49 10.573 34.502 25.996 42.35a29.536 9.03 0 0 0-8.031 6.173A29.536 9.03 0 0 0 50 92.805a29.536 9.03 0 0 0 29.535-9.03 29.536 9.03 0 0 0-8.025-6.177C86.93 69.748 97.5 53.74 97.5 35.252c0-5.953-12.15-11.05-29.4-13.188 2.346-5.839 4.505-10.97 5.007-12.328.644-1.738-1.19-2.47-3.185-2.537z" style="color:#000;display:inline;overflow:visible;visibility:visible;opacity:1;fill:#3651e7;fill-opacity:1;fill-rule:nonzero;stroke:none;stroke-width:.16947562;stroke-linecap:round;stroke-linejoin:round;stroke-miterlimit:4;stroke-dasharray:none;stroke-dashoffset:0;stroke-opacity:1;marker:none;enable-background:accumulate"/></svg>
